X: 327
T: Yellow Barber
B: canberra pickers and fiddlers
B: tunes
M:4/4
L:1/8
R: reel
Q: 1/4=100
K:D
V:1 
|:A,B, D2 D2 A,B,|D2 DE FE D2|E4 E2 EF|GFEG FE D2|
F A2 B A2 Ad|BAGB ABde|fdec dBAG|FDEF D2 D2:|
|:AB d2 d2 de|fedf edBd|e4 e2 ef|gfeg fe d2|
fdecdBAd|BAGB ABde|fdec dBAG|FDEF D2 D2:||
% abcbook-tune_id 63da5934d03715904467e787
% abcbook-tune_composer_id 
% abcbook-link-0 https://www.youtube.com/watch?v=6bjO8npfzHg
% abcbook-boost 0
% abcbook-difficulty 0
% abcbook-tags canberra pickers and fiddlers,old time tunes,© free
% abcbook-tablature 
% abcbook-transpose 
% abcbook-tuning ADAE
% abcbook-lastupdated 1729081018643
% abcbook-src-url https://tunebook.net/scrape/tunes.abc
% abcbook-soundfonts 
% abcbook-repeats 1
%%gchordfont "itim-music,Itim" 20

